packages/sights/assets/overlays/T24v9XS8.svg

<svg width="500" height="375" fill="none" xmlns="http://www.w3.org/2000/svg"><path d="m7 86.29 36.51-1.22S186.29 12.41 220.68 5.25M337.17 5.25s94.47 27.23 120.61 49.25c0 0 1 2.75 1.83 4.35L493 104.94M7 278.06s83 22.64 86.65 91.69M179.87 369.75 444 258.57l8.25-10.09s13.37-72.68 40.75-82.09" stroke="#fff" stroke-miterlimit="10"/><path d="M7 286.55s44 24.3 55 59.16l6 24M7 249.55s84.82 15 105.3 97.23c0 0 340.89-118.93 341.81-122.14 0 0 10.7-43.26 27.82-57.18M269.27 76.27s-36.89.24-96.74 14.46c0 0-43.57 3.89-48.15 1.83L119.56 107s115.5-3.67 130.44-9.4l12.87-5 2.52-3.44s7.11-20.18 6.43-29.81c0 0-19.72-15.84-51.14-13.54l-4.81.93s-38.53 15.82-43.8 21.1l7.8 21.32" stroke="#fff" stroke-miterlimit="10"/><path d="M124.38 92.56s96.45-78.47 144.76-87.31M307.36 5.25S401.22 25.51 433 45.77c0 0 33.63 48.17 35.16 55.2 0 0-199.79.67-271.41 2.48M43.51 85.07l44.64-1.22s127.49-75.11 149-78.6M427.74 265.43s1.76 9.5 8 13.17l32.56 11.77s7.34 1.38 14.53-4.59c0 0 7.16-6.42 10.15-11.92" stroke="#fff" stroke-miterlimit="10"/><path d="M493 192c-9.58 2.3-20.06 18.35-24.89 39.34-5.57 24.18-1.53 45.76 9 48.19 5.08 1.17 11.43-3.43 15.24-10.28M361.87 18.92s11.37 54.84 11.83 78.84l6.12 7.18 6.42 27.06s-2.45 67.16-6.5 120.48M119.56 107v6.19s-8.71 105 11.24 210.71l2.2 15.66" stroke="#fff" stroke-miterlimit="10"/><path d="m342.9 154.93 6.19 1.72s30-3.44 31.53-5.27l.92-5.28-2.41-2.64s-5.51-2.17-10.44-1.14l-1.14 3.68a74.61 74.61 0 0 1-10.55.69l-5.39-2.69s-5.27.8-8.71 3.55c0 .04-1.26 5.09 0 7.38Z" stroke="#fff" stroke-miterlimit="10"/></svg>

<svg width="500" height="375" viewBox="0 0 500 375" fill="none" xmlns="http://www.w3.org/2000/svg">
<path d="M7 86.29L43.51 85.07C43.51 85.07 186.29 12.41 220.68 5.25" stroke="white" stroke-miterlimit="10"/>
<path d="M337.17 5.25C337.17 5.25 431.64 32.48 457.78 54.5C457.78 54.5 458.78 57.25 459.61 58.85L493 104.94" stroke="white" stroke-miterlimit="10"/>
<path d="M7 278.06C7 278.06 90 300.7 93.65 369.75" stroke="white" stroke-miterlimit="10"/>
<path d="M179.87 369.75L444 258.57L452.25 248.48C452.25 248.48 465.62 175.8 493 166.39" stroke="white" stroke-miterlimit="10"/>
<path d="M7 286.55C7 286.55 51 310.85 62 345.71L68 369.71" stroke="white" stroke-miterlimit="10"/>
<path d="M7 249.55C7 249.55 91.82 264.55 112.3 346.78C112.3 346.78 453.19 227.85 454.11 224.64C454.11 224.64 464.81 181.38 481.93 167.46" stroke="white" stroke-miterlimit="10"/>
<path d="M269.27 76.27C269.27 76.27 232.38 76.51 172.53 90.73C172.53 90.73 128.96 94.62 124.38 92.56L119.56 107C119.56 107 235.06 103.33 250 97.6L262.87 92.6L265.39 89.16C265.39 89.16 272.5 68.98 271.82 59.35C271.82 59.35 252.1 43.51 220.68 45.81L215.87 46.74C215.87 46.74 177.34 62.56 172.07 67.84L179.87 89.16" stroke="white" stroke-miterlimit="10"/>
<path d="M124.38 92.56C124.38 92.56 220.83 14.09 269.14 5.25" stroke="white" stroke-miterlimit="10"/>
<path d="M307.36 5.25C307.36 5.25 401.22 25.51 433 45.77C433 45.77 466.63 93.94 468.16 100.97C468.16 100.97 268.37 101.64 196.75 103.45" stroke="white" stroke-miterlimit="10"/>
<path d="M43.5098 85.07L88.1498 83.85C88.1498 83.85 215.64 8.74 237.15 5.25" stroke="white" stroke-miterlimit="10"/>
<path d="M427.74 265.43C427.74 265.43 429.5 274.93 435.74 278.6L468.3 290.37C468.3 290.37 475.64 291.75 482.83 285.78C482.83 285.78 489.99 279.36 492.98 273.86" stroke="white" stroke-miterlimit="10"/>
<path d="M493 192C483.42 194.3 472.94 210.35 468.11 231.34C462.54 255.52 466.58 277.1 477.11 279.53C482.19 280.7 488.54 276.1 492.35 269.25" stroke="white" stroke-miterlimit="10"/>
<path d="M361.87 18.92C361.87 18.92 373.24 73.76 373.7 97.76L379.82 104.94L386.24 132C386.24 132 383.79 199.16 379.74 252.48" stroke="white" stroke-miterlimit="10"/>
<path d="M119.56 107V113.19C119.56 113.19 110.85 218.19 130.8 323.9L133 339.56" stroke="white" stroke-miterlimit="10"/>
<path d="M342.9 154.93L349.09 156.65C349.09 156.65 379.09 153.21 380.62 151.38L381.54 146.1L379.13 143.46C379.13 143.46 373.62 141.29 368.69 142.32L367.55 146C364.054 146.479 360.528 146.71 357 146.69L351.61 144C351.61 144 346.34 144.8 342.9 147.55C342.9 147.59 341.64 152.64 342.9 154.93Z" stroke="white" stroke-miterlimit="10"/>
</svg>
